static/img/kroki/cb5dfe660f961eb1909aecbb308ea29d.svg

<?xml version="1.0" encoding="us-ascii" standalone="no"?><svg xmlns="http://www.w3.org/2000/svg" xmlns:xlink="http://www.w3.org/1999/xlink" contentStyleType="text/css" height="374px" preserveAspectRatio="none" style="width:437px;height:374px;" version="1.1" viewBox="0 0 437 374" width="437px" zoomAndPan="magnify"><defs/><g><!--class aws_cloudfront_field_level_encryption_profile--><g id="elem_aws_cloudfront_field_level_encryption_profile"><rect codeLine="23" fill="#3D176E" height="39.7891" id="aws_cloudfront_field_level_encryption_profile" rx="2.5" ry="2.5" style="stroke:#000D19;stroke-width:0.5;" width="423" x="7" y="328.58"/><ellipse cx="22" cy="348.4745" fill="#ADD1B2" rx="11" ry="11" style="stroke:#181818;stroke-width:1.0;"/><path d="M24.9688,354.1152 Q24.3906,354.412 23.75,354.5527 Q23.1094,354.7089 22.4063,354.7089 Q19.9063,354.7089 18.5781,353.0683 Q17.2656,351.412 17.2656,348.287 Q17.2656,345.162 18.5781,343.5058 Q19.9063,341.8495 22.4063,341.8495 Q23.1094,341.8495 23.75,342.0058 Q24.4063,342.162 24.9688,342.4589 L24.9688,345.1777 Q24.3438,344.5995 23.75,344.3339 Q23.1563,344.0527 22.5313,344.0527 Q21.1875,344.0527 20.5,345.1308 Q19.8125,346.1933 19.8125,348.287 Q19.8125,350.3808 20.5,351.4589 Q21.1875,352.5214 22.5313,352.5214 Q23.1563,352.5214 23.75,352.2558 Q24.3438,351.9745 24.9688,351.3964 L24.9688,354.1152 Z " fill="#000000"/><text fill="#D9B8FF" font-family="Helvetica" font-size="17" lengthAdjust="spacing" textLength="381" x="41" y="354.3598">aws_cloudfront_field_level_encryption_profile</text></g><!--class aws_resource--><g id="elem_aws_resource"><rect codeLine="26" fill="#3D176E" height="39.7891" id="aws_resource" rx="2.5" ry="2.5" style="stroke:#000D19;stroke-width:0.5;" width="155" x="141" y="167.79"/><ellipse cx="156" cy="187.6845" fill="#ADD1B2" rx="11" ry="11" style="stroke:#181818;stroke-width:1.0;"/><path d="M158.9688,193.3252 Q158.3906,193.622 157.75,193.7627 Q157.1094,193.9189 156.4063,193.9189 Q153.9063,193.9189 152.5781,192.2783 Q151.2656,190.622 151.2656,187.497 Q151.2656,184.372 152.5781,182.7158 Q153.9063,181.0595 156.4063,181.0595 Q157.1094,181.0595 157.75,181.2158 Q158.4063,181.372 158.9688,181.6689 L158.9688,184.3877 Q158.3438,183.8095 157.75,183.5439 Q157.1563,183.2627 156.5313,183.2627 Q155.1875,183.2627 154.5,184.3408 Q153.8125,185.4033 153.8125,187.497 Q153.8125,189.5908 154.5,190.6689 Q155.1875,191.7314 156.5313,191.7314 Q157.1563,191.7314 157.75,191.4658 Q158.3438,191.1845 158.9688,190.6064 L158.9688,193.3252 Z " fill="#000000"/><text fill="#D9B8FF" font-family="Helvetica" font-size="17" lengthAdjust="spacing" textLength="113" x="175" y="193.5698">aws_resource</text></g><!--class resource--><g id="elem_resource"><rect codeLine="29" fill="#3D176E" height="39.7891" id="resource" rx="2.5" ry="2.5" style="stroke:#000D19;stroke-width:0.5;" width="113" x="162" y="7"/><ellipse cx="177" cy="26.8945" fill="#ADD1B2" rx="11" ry="11" style="stroke:#181818;stroke-width:1.0;"/><path d="M179.9688,32.5352 Q179.3906,32.832 178.75,32.9727 Q178.1094,33.1289 177.4063,33.1289 Q174.9063,33.1289 173.5781,31.4883 Q172.2656,29.832 172.2656,26.707 Q172.2656,23.582 173.5781,21.9258 Q174.9063,20.2695 177.4063,20.2695 Q178.1094,20.2695 178.75,20.4258 Q179.4063,20.582 179.9688,20.8789 L179.9688,23.5977 Q179.3438,23.0195 178.75,22.7539 Q178.1563,22.4727 177.5313,22.4727 Q176.1875,22.4727 175.5,23.5508 Q174.8125,24.6133 174.8125,26.707 Q174.8125,28.8008 175.5,29.8789 Q176.1875,30.9414 177.5313,30.9414 Q178.1563,30.9414 178.75,30.6758 Q179.3438,30.3945 179.9688,29.8164 L179.9688,32.5352 Z " fill="#000000"/><text fill="#D9B8FF" font-family="Helvetica" font-size="17" lengthAdjust="spacing" textLength="71" x="196" y="32.7798">resource</text></g><!--reverse link aws_resource to aws_cloudfront_field_level_encryption_profile--><g id="link_aws_resource_aws_cloudfront_field_level_encryption_profile"><path codeLine="32" d="M218.5,225.84 C218.5,256.36 218.5,297.69 218.5,328.25 " fill="none" id="aws_resource-backto-aws_cloudfront_field_level_encryption_profile" style="stroke:#FFAF37;stroke-width:2.0;"/><polygon fill="none" points="218.5,207.84,212.5,225.84,224.5,225.84,218.5,207.84" style="stroke:#FFAF37;stroke-width:2.0;"/></g><!--reverse link resource to aws_resource--><g id="link_resource_aws_resource"><path codeLine="33" d="M218.5,65.05 C218.5,95.57 218.5,136.9 218.5,167.46 " fill="none" id="resource-backto-aws_resource" style="stroke:#FFAF37;stroke-width:2.0;"/><polygon fill="none" points="218.5,47.05,212.5,65.05,224.5,65.05,218.5,47.05" style="stroke:#FFAF37;stroke-width:2.0;"/></g><!--SRC=[bP1BQyCm48Jl_XM2d0rEG-i4Uaa3fRs4qlHk56aL2yjQiv9ZtCT_Rz8qHRRpeDUPRtTdDjSI69ILRra9vHh8HQxGjkB4IpOdmcQ11ecDbE9galRDHxJ-Ah3a9R0dC5lmMl0-yPPhKLXmZjq4rWCNnOQmjlAmtXEtRcU1zG6rCDovkVUarxM788oShQTAzSd-qj54ZjCx66184kWNIP94ZcTzvEgfYxt_Y9L-1pOEdxP43uEOWnC_rCMKUo88EIXwzCzcVE5IQhjXju7sUiX45gYZht8kiTdJYXiNdd4U2D2t5Im6hM0sbIez2J-VWoEnVntZZSk4mLegsdN8b0OZCmDRC1bOGMtbDTgi8bJQ0Fk8egzWaC1XJQAZTxKETVyPn_7_BaOdXezIz0q0]--></g></svg>

<svg xmlns="http://www.w3.org/2000/svg" width="437" height="374" viewBox="0 0 437 374"><rect width="423" height="39.789" x="7" y="328.58" fill="#3D176E" rx="2.5" ry="2.5" style="stroke:#000d19;stroke-width:.5"/><circle cx="22" cy="348.474" r="11" fill="#ADD1B2" style="stroke:#181818;stroke-width:1"/><path d="M24.969 354.115q-.578.297-1.219.438-.64.156-1.344.156-2.5 0-3.828-1.64-1.312-1.657-1.312-4.782t1.312-4.781q1.328-1.656 3.828-1.656.703 0 1.344.156.656.156 1.219.453v2.719q-.625-.579-1.219-.844-.594-.281-1.219-.281-1.343 0-2.031 1.078-.687 1.062-.687 3.156t.687 3.172q.688 1.062 2.031 1.062.625 0 1.219-.265.594-.281 1.219-.86z"/><text x="41" y="354.36" fill="#D9B8FF" font-family="Helvetica" font-size="17" textLength="381">aws_cloudfront_field_level_encryption_profile</text><rect width="155" height="39.789" x="141" y="167.79" fill="#3D176E" rx="2.5" ry="2.5" style="stroke:#000d19;stroke-width:.5"/><circle cx="156" cy="187.685" r="11" fill="#ADD1B2" style="stroke:#181818;stroke-width:1"/><path d="M158.969 193.325q-.578.297-1.219.438-.64.156-1.344.156-2.5 0-3.828-1.64-1.312-1.657-1.312-4.782t1.312-4.781q1.328-1.656 3.828-1.656.703 0 1.344.156.656.156 1.219.453v2.719q-.625-.578-1.219-.844-.594-.281-1.219-.281-1.344 0-2.031 1.078-.687 1.062-.687 3.156t.687 3.172q.688 1.062 2.031 1.062.625 0 1.219-.265.594-.281 1.219-.86z"/><text x="175" y="193.57" fill="#D9B8FF" font-family="Helvetica" font-size="17" textLength="113">aws_resource</text><rect width="113" height="39.789" x="162" y="7" fill="#3D176E" rx="2.5" ry="2.5" style="stroke:#000d19;stroke-width:.5"/><circle cx="177" cy="26.895" r="11" fill="#ADD1B2" style="stroke:#181818;stroke-width:1"/><path d="M179.969 32.535q-.578.297-1.219.438-.64.156-1.344.156-2.5 0-3.828-1.64-1.312-1.657-1.312-4.782t1.312-4.781q1.328-1.656 3.828-1.656.703 0 1.344.156.656.156 1.219.453v2.719q-.625-.578-1.219-.844-.594-.281-1.219-.281-1.344 0-2.031 1.078-.687 1.062-.687 3.156t.687 3.172q.688 1.062 2.031 1.062.625 0 1.219-.265.594-.281 1.219-.86z"/><text x="196" y="32.78" fill="#D9B8FF" font-family="Helvetica" font-size="17" textLength="71">resource</text><path fill="none" d="M218.5 225.84v102.41m0-120.41-6 18h12zm0-142.79v102.41m0-120.41-6 18h12z" style="stroke:#ffaf37;stroke-width:2"/></svg>
